X:2942
L:1/8
M:4/4
K:D
"^reel" G | FEDF AdAF | (3GAB AF E2 EG |1 FEDF AdAF | (3GAB AF D3 :|2 dBcA BGAF | (3GAB AF D3 || 
 G | (3FED AD BDAD | (3FED AF E2 EG |1 (3FED AD BDAD | (3GAB AF D3 :|2 dBcA BGAF | (3GAB AF D4 ||

